48x48/apps/sk1-color-picker.svg

<svg xmlns="http://www.w3.org/2000/svg" width="48" height="48" version="1.1">
 <path style="opacity:0.2" d="M 14.317184,6 A 2.6353098,2.5862427 0 0 0 12.037458,7.2907379 L 7.1960505,15.497469 2.3546426,23.7042 a 2.6353098,2.5862427 0 0 0 0,2.591599 l 4.8414079,8.206731 4.8414075,8.206731 A 2.6353098,2.5862427 0 0 0 14.317184,44 H 24 33.682816 a 2.6353098,2.5862427 0 0 0 2.281444,-1.290739 l 4.839689,-8.206731 4.841408,-8.206731 a 2.6353098,2.5862427 0 0 0 0,-2.591599 L 40.803949,15.497469 35.96426,7.2907379 A 2.6353098,2.5862427 0 0 0 33.682816,6 H 24 Z"/>
 <path style="fill:#3f474a" d="M 14.317184,5.0000001 A 2.6353098,2.5862427 0 0 0 12.037458,6.290738 L 7.1960505,14.497469 2.3546426,22.7042 a 2.6353098,2.5862427 0 0 0 0,2.591599 l 4.8414079,8.206731 4.8414075,8.206731 A 2.6353098,2.5862427 0 0 0 14.317184,43 H 24 33.682816 a 2.6353098,2.5862427 0 0 0 2.281444,-1.290739 l 4.839689,-8.206731 4.841408,-8.206731 a 2.6353098,2.5862427 0 0 0 0,-2.591599 L 40.803949,14.497469 35.96426,6.290738 A 2.6353098,2.5862427 0 0 0 33.682816,5.0000001 H 24 Z"/>
 <path style="opacity:0.2" d="M 15.316406,10 6.6308594,25 15.316406,40 H 32.683594 L 41.369141,25 32.683594,10.001953 32.685547,10 h -0.002 z"/>
 <path style="fill:#73d216" d="M 15.315651,9 6.6318245,23.999757 23.999896,24.000035 Z"/>
 <path style="fill:#ffe721" d="M 6.6314771,24.000519 15.315721,39 23.999966,24.000519 Z"/>
 <path style="fill:#f57900" d="M 15.316277,39 32.684348,38.999722 24.000521,23.999965 Z"/>
 <path style="fill:#ef2929" d="M 32.684487,38.999861 41.368315,24.000173 24.000243,23.999895 Z"/>
 <path style="fill:#8c398d" d="M 41.368523,24.000104 32.684279,9.0006235 24.000034,24.000104 Z"/>
 <path style="fill:#3465a4" d="M 32.684696,9.0005542 15.316625,9.0008314 24.000452,24.000589 Z"/>
 <path style="fill:#f4f4f7;opacity:0.1" d="M 15.316406 9 L 6.6308594 24 L 7.2089844 24 L 15.316406 10 L 32.683594 10 L 32.683594 10.001953 L 40.789062 24 L 41.369141 24 L 32.683594 9.0019531 L 32.683594 9 L 15.316406 9 z"/>
 <path style="opacity:0.1;fill:#f4f4f7" d="M 14.316406 5 A 2.6353098 2.5862427 0 0 0 12.037109 6.2910156 L 7.1953125 14.498047 L 2.3554688 22.705078 A 2.6353098 2.5862427 0 0 0 2.0527344 24.5 A 2.6353098 2.5862427 0 0 1 2.3554688 23.705078 L 7.1953125 15.498047 L 12.037109 7.2910156 A 2.6353098 2.5862427 0 0 1 14.316406 6 L 24 6 L 33.683594 6 A 2.6353098 2.5862427 0 0 1 35.964844 7.2910156 L 40.804688 15.498047 L 45.644531 23.705078 A 2.6353098 2.5862427 0 0 1 45.947266 24.5 A 2.6353098 2.5862427 0 0 0 45.644531 22.705078 L 40.804688 14.498047 L 35.964844 6.2910156 A 2.6353098 2.5862427 0 0 0 33.683594 5 L 24 5 L 14.316406 5 z"/>
</svg>

<svg xmlns="http://www.w3.org/2000/svg" width="48" height="48"><path style="opacity:.2" d="M14.317 6a2.635 2.586 0 0 0-2.28 1.29l-4.84 8.207-4.842 8.207a2.635 2.586 0 0 0 0 2.592l4.841 8.207 4.841 8.206A2.635 2.586 0 0 0 14.317 44h19.366a2.635 2.586 0 0 0 2.281-1.29l4.84-8.207 4.841-8.207a2.635 2.586 0 0 0 0-2.592l-4.841-8.207-4.84-8.206A2.635 2.586 0 0 0 33.683 6H24z"/><path style="fill:#3f474a" d="M14.317 5a2.635 2.586 0 0 0-2.28 1.29l-4.84 8.207-4.842 8.207a2.635 2.586 0 0 0 0 2.592l4.841 8.207 4.841 8.206A2.635 2.586 0 0 0 14.317 43h19.366a2.635 2.586 0 0 0 2.281-1.29l4.84-8.207 4.841-8.207a2.635 2.586 0 0 0 0-2.592l-4.841-8.207-4.84-8.206A2.635 2.586 0 0 0 33.683 5H24z"/><path style="opacity:.2" d="M15.316 10 6.631 25l8.685 15h17.368l8.685-15-8.685-14.998.002-.002h-.002z"/><path style="fill:#73d216" d="M15.316 9 6.632 24H24z"/><path style="fill:#ffe721" d="m6.631 24 8.685 15L24 24z"/><path style="fill:#f57900" d="M15.316 39h17.368l-8.683-15z"/><path style="fill:#ef2929" d="m32.684 39 8.684-15H24z"/><path style="fill:#8c398d" d="M41.369 24 32.684 9 24 24z"/><path style="fill:#3465a4" d="M32.685 9H15.317L24 24z"/><path style="fill:#f4f4f7;opacity:.1" d="M15.316 9 6.631 24h.578l8.107-14h17.368v.002L40.789 24h.58L32.684 9.002V9H15.316z"/><path style="opacity:.1;fill:#f4f4f7" d="M14.316 5a2.635 2.586 0 0 0-2.279 1.291l-4.842 8.207-4.84 8.207a2.635 2.586 0 0 0-.302 1.795 2.635 2.586 0 0 1 .302-.795l4.84-8.207 4.842-8.207A2.635 2.586 0 0 1 14.317 6H33.683a2.635 2.586 0 0 1 2.28 1.291l4.84 8.207 4.84 8.207a2.635 2.586 0 0 1 .303.795 2.635 2.586 0 0 0-.302-1.795l-4.84-8.207-4.84-8.207A2.635 2.586 0 0 0 33.684 5H14.316z"/></svg>
